public/img/logo-tidycards.svg

<svg width="112" height="32" viewBox="0 0 112 32" fill="none" xmlns="http://www.w3.org/2000/svg">
<g clip-path="url(#clip0_1727_16363)">
<path fill-rule="evenodd" clip-rule="evenodd" d="M40 12.5766V10.9281H48.3359V12.5766H45.1094V21.6H43.2344V12.5766H40ZM49.9766 12.6234C49.7786 12.4203 49.6797 12.1755 49.6797 11.8891C49.6797 11.6026 49.7799 11.3578 49.9805 11.1547C50.181 10.9516 50.4271 10.85 50.7188 10.85C51.0104 10.85 51.2565 10.9516 51.457 11.1547C51.6576 11.3578 51.7578 11.6026 51.7578 11.8891C51.7578 12.1755 51.6576 12.4203 51.457 12.6234C51.2565 12.8266 51.0104 12.9281 50.7188 12.9281C50.4271 12.9281 50.1797 12.8266 49.9766 12.6234ZM49.8672 21.6V13.8734H51.5469V21.6H49.8672ZM53.2578 17.725C53.2578 16.4958 53.5768 15.5141 54.2148 14.7797C54.8529 14.0453 55.6745 13.6781 56.6797 13.6781C57.1745 13.6781 57.6367 13.7862 58.0664 14.0023C58.4961 14.2185 58.862 14.5323 59.1641 14.9438V10.9281H60.8438V21.6H59.1641V20.5453C58.862 20.9359 58.4961 21.2419 58.0664 21.4633C57.6367 21.6846 57.1745 21.7953 56.6797 21.7953C55.6745 21.7953 54.8529 21.4307 54.2148 20.7016C53.5768 19.9724 53.2578 18.9802 53.2578 17.725ZM54.9844 17.725C54.9844 18.4854 55.1836 19.1052 55.582 19.5844C55.9805 20.0635 56.513 20.3031 57.1797 20.3031C57.5651 20.3031 57.9453 20.2029 58.3203 20.0023C58.6953 19.8018 58.9766 19.5557 59.1641 19.2641V16.2094C58.9766 15.9177 58.6953 15.6716 58.3203 15.4711C57.9453 15.2706 57.5651 15.1703 57.1797 15.1703C56.5182 15.1703 55.987 15.4086 55.5859 15.8852C55.1849 16.3617 54.9844 16.975 54.9844 17.725ZM61.8906 13.8734H63.6953L65.9531 19.6625L68.2109 13.8734H70L66.2734 22.9906C66.0182 23.6156 65.6745 24.0596 65.2422 24.3227C64.8099 24.5857 64.2734 24.7224 63.6328 24.7328C63.2682 24.7328 62.9531 24.6964 62.6875 24.6234L62.9297 23.1234C63.1224 23.2068 63.3359 23.2484 63.5703 23.2484C63.8568 23.2484 64.0872 23.199 64.2617 23.1C64.4362 23.001 64.5781 22.8266 64.6875 22.5766L65.0703 21.6938L61.8906 13.8734ZM70.6406 16.2719C70.6406 15.4646 70.7852 14.7146 71.0742 14.0219C71.3633 13.3292 71.7578 12.7445 72.2578 12.268C72.7578 11.7914 73.3516 11.419 74.0391 11.1508C74.7266 10.8826 75.4609 10.7484 76.2422 10.7484C77.2422 10.7484 78.0964 10.9685 78.8047 11.4086C79.513 11.8487 80.0833 12.4255 80.5156 13.1391L78.9297 13.9672C78.6641 13.5089 78.2891 13.1352 77.8047 12.8461C77.3203 12.557 76.7995 12.4125 76.2422 12.4125C75.1849 12.4125 74.3073 12.7745 73.6094 13.4984C72.9115 14.2224 72.5625 15.1469 72.5625 16.2719C72.5625 17.3813 72.9115 18.3018 73.6094 19.0336C74.3073 19.7654 75.1849 20.1313 76.2422 20.1313C76.7943 20.1313 77.3138 19.9854 77.8008 19.6938C78.2878 19.4021 78.6641 19.0297 78.9297 18.5766L80.5312 19.3734C79.5052 20.988 78.0755 21.7953 76.2422 21.7953C75.4609 21.7953 74.7266 21.6599 74.0391 21.3891C73.3516 21.1182 72.7578 20.7445 72.2578 20.268C71.7578 19.7914 71.3633 19.2068 71.0742 18.5141C70.7852 17.8214 70.6406 17.074 70.6406 16.2719ZM81.5156 19.2328C81.5156 18.8057 81.5938 18.4242 81.75 18.0883C81.9062 17.7523 82.1159 17.4867 82.3789 17.2914C82.6419 17.0961 82.9271 16.949 83.2344 16.85C83.5417 16.751 83.8594 16.7016 84.1875 16.7016C85.276 16.7016 86.112 17.0323 86.6953 17.6938V16.5453C86.6953 16.1026 86.5286 15.7524 86.1953 15.4945C85.862 15.2367 85.4271 15.1078 84.8906 15.1078C84.0052 15.1078 83.2422 15.4359 82.6016 16.0922L81.8984 14.9281C82.763 14.0948 83.8463 13.6781 85.1484 13.6781C85.5078 13.6781 85.8424 13.7081 86.1523 13.768C86.4622 13.8279 86.7552 13.9281 87.0312 14.0688C87.3073 14.2094 87.5443 14.3839 87.7422 14.5922C87.9401 14.8005 88.0964 15.0648 88.2109 15.3852C88.3255 15.7055 88.3828 16.0661 88.3828 16.4672V21.6H86.6953V20.7484C86.4089 21.0818 86.0469 21.3396 85.6094 21.5219C85.1719 21.7042 84.6979 21.7953 84.1875 21.7953C83.8698 21.7953 83.5547 21.7393 83.2422 21.6273C82.9297 21.5154 82.6432 21.3565 82.3828 21.1508C82.1224 20.9451 81.9128 20.6755 81.7539 20.3422C81.5951 20.0089 81.5156 19.6391 81.5156 19.2328ZM83.1953 19.2484C83.1953 19.6651 83.3529 20.001 83.668 20.2563C83.9831 20.5115 84.3802 20.6391 84.8594 20.6391C85.2344 20.6391 85.5859 20.5701 85.9141 20.432C86.2422 20.294 86.5026 20.0974 86.6953 19.8422V18.6547C86.5026 18.3995 86.2422 18.2029 85.9141 18.0648C85.5859 17.9268 85.2344 17.8578 84.8594 17.8578C84.3802 17.8578 83.9831 17.9867 83.668 18.2445C83.3529 18.5024 83.1953 18.837 83.1953 19.2484ZM90.5469 21.6V13.8734H92.2266V14.9906C92.5391 14.6052 92.918 14.2901 93.3633 14.0453C93.8086 13.8005 94.2682 13.6781 94.7422 13.6781V15.3422C94.6016 15.3109 94.4297 15.2953 94.2266 15.2953C93.862 15.2953 93.4792 15.3982 93.0781 15.6039C92.6771 15.8096 92.3932 16.0531 92.2266 16.3344V21.6H90.5469ZM95.6328 17.725C95.6328 16.4958 95.9518 15.5141 96.5898 14.7797C97.2279 14.0453 98.0495 13.6781 99.0547 13.6781C99.5495 13.6781 100.012 13.7862 100.441 14.0023C100.871 14.2185 101.237 14.5323 101.539 14.9438V10.9281H103.219V21.6H101.539V20.5453C101.237 20.9359 100.871 21.2419 100.441 21.4633C100.012 21.6846 99.5495 21.7953 99.0547 21.7953C98.0495 21.7953 97.2279 21.4307 96.5898 20.7016C95.9518 19.9724 95.6328 18.9802 95.6328 17.725ZM97.3594 17.725C97.3594 18.4854 97.5586 19.1052 97.957 19.5844C98.3555 20.0635 98.888 20.3031 99.5547 20.3031C99.9401 20.3031 100.32 20.2029 100.695 20.0023C101.07 19.8018 101.352 19.5557 101.539 19.2641V16.2094C101.352 15.9177 101.07 15.6716 100.695 15.4711C100.32 15.2706 99.9401 15.1703 99.5547 15.1703C98.8932 15.1703 98.362 15.4086 97.9609 15.8852C97.5599 16.3617 97.3594 16.975 97.3594 17.725ZM104.727 20.5766L105.5 19.3734C105.786 19.6703 106.173 19.9242 106.66 20.1352C107.147 20.3461 107.628 20.4516 108.102 20.4516C108.596 20.4516 108.977 20.3578 109.242 20.1703C109.508 19.9828 109.641 19.7328 109.641 19.4203C109.641 19.2172 109.555 19.0479 109.383 18.9125C109.211 18.7771 108.988 18.6716 108.715 18.5961C108.441 18.5206 108.138 18.449 107.805 18.3813C107.471 18.3135 107.138 18.2263 106.805 18.1195C106.471 18.0128 106.168 17.8813 105.895 17.725C105.621 17.5688 105.398 17.3448 105.227 17.0531C105.055 16.7615 104.969 16.4151 104.969 16.0141C104.969 15.3526 105.24 14.7979 105.781 14.35C106.323 13.9021 107.065 13.6781 108.008 13.6781C109.195 13.6781 110.193 14.0349 111 14.7484L110.297 15.9359C110.052 15.6651 109.727 15.4425 109.32 15.268C108.914 15.0935 108.477 15.0063 108.008 15.0063C107.576 15.0063 107.23 15.0961 106.973 15.2758C106.715 15.4555 106.586 15.6859 106.586 15.9672C106.586 16.1287 106.652 16.2667 106.785 16.3813C106.918 16.4958 107.094 16.5831 107.312 16.643C107.531 16.7029 107.781 16.7667 108.062 16.8344C108.344 16.9021 108.63 16.9672 108.922 17.0297C109.214 17.0922 109.5 17.1846 109.781 17.307C110.062 17.4294 110.312 17.5727 110.531 17.7367C110.75 17.9008 110.926 18.1234 111.059 18.4047C111.191 18.6859 111.258 19.0089 111.258 19.3734C111.258 20.0818 110.974 20.6625 110.406 21.1156C109.839 21.5688 109.049 21.7953 108.039 21.7953C107.378 21.7953 106.76 21.6899 106.188 21.4789C105.615 21.268 105.128 20.9672 104.727 20.5766Z" fill="#222222"/>
<path d="M29.3333 2.66667V26H26V29.3333H2.66666V6H6V2.66667H29.3333ZM22.6667 9.33334H6V26H22.6667V9.33334ZM19.3333 12.6667V16H16V22.6667H12.6667V16H9.33333V12.6667H19.3333Z" fill="#6B5DFF"/>
</g>
<defs>
<clipPath id="clip0_1727_16363">
<rect width="112" height="32" fill="white"/>
</clipPath>
</defs>
</svg>

<svg xmlns="http://www.w3.org/2000/svg" width="112" height="32" fill="none" viewBox="0 0 112 32"><g clip-path="url(#a)"><path fill="#222" fill-rule="evenodd" d="M40 12.577v-1.649h8.336v1.649h-3.227V21.6h-1.875v-9.023zm9.977.046a1 1 0 0 1-.297-.734q0-.43.3-.734a1 1 0 0 1 .739-.305q.437 0 .738.305.3.305.3.734 0 .43-.3.734a1 1 0 0 1-.738.305 1 1 0 0 1-.742-.305m-.11 8.977v-7.727h1.68V21.6zm3.39-3.875q0-1.844.958-2.945.957-1.102 2.465-1.102.742 0 1.386.324.645.324 1.098.942v-4.016h1.68V21.6h-1.68v-1.055q-.453.586-1.098.918t-1.386.332q-1.508 0-2.465-1.093-.957-1.095-.957-2.977m1.727 0q0 1.14.598 1.86.597.718 1.598.718.578 0 1.14-.3.563-.301.844-.739V16.21q-.281-.437-.844-.738-.562-.3-1.14-.3-.993 0-1.594.714-.602.715-.602 1.84m6.907-3.852h1.804l2.258 5.79 2.258-5.79H70l-3.727 9.118q-.383.938-1.03 1.332-.65.395-1.61.41-.547 0-.946-.11l.243-1.5q.288.125.64.125.43 0 .692-.148t.425-.523l.383-.883zm8.75 2.399q0-1.21.433-2.25a5.1 5.1 0 0 1 1.184-1.754 5.4 5.4 0 0 1 1.781-1.117 6 6 0 0 1 2.203-.403q1.5 0 2.563.66a5.15 5.15 0 0 1 1.71 1.731l-1.585.828a3.1 3.1 0 0 0-1.125-1.12 3 3 0 0 0-1.563-.434q-1.586 0-2.633 1.085-1.046 1.086-1.046 2.774 0 1.664 1.046 2.762 1.047 1.097 2.633 1.097.828 0 1.559-.437a3.16 3.16 0 0 0 1.129-1.117l1.601.796q-1.54 2.422-4.289 2.422a6 6 0 0 1-2.203-.406 5.4 5.4 0 0 1-1.781-1.121 5.1 5.1 0 0 1-1.184-1.754 5.8 5.8 0 0 1-.433-2.242m10.875 2.96q0-.64.234-1.144t.629-.797.855-.441.954-.148q1.632 0 2.507.992v-1.149q0-.664-.5-1.05-.5-.387-1.304-.387-1.329 0-2.29.984l-.703-1.164q1.297-1.25 3.25-1.25.54 0 1.004.09.465.09.88.3.413.212.71.524t.469.793.172 1.082V21.6h-1.688v-.852a2.85 2.85 0 0 1-1.086.774 3.7 3.7 0 0 1-1.421.273q-.477 0-.946-.168a3 3 0 0 1-.86-.476 2.2 2.2 0 0 1-.628-.809 2.55 2.55 0 0 1-.238-1.11m1.68.016q0 .625.472 1.008.472.384 1.191.383.563 0 1.055-.207t.781-.59v-1.187a1.86 1.86 0 0 0-.78-.59 2.7 2.7 0 0 0-1.056-.207q-.719 0-1.191.386a1.24 1.24 0 0 0-.473 1.004m7.35 2.352v-7.727h1.68v1.118a3.8 3.8 0 0 1 1.137-.946 2.8 2.8 0 0 1 1.38-.367v1.664a2.4 2.4 0 0 0-.516-.047q-.548 0-1.149.309-.601.31-.851.73V21.6zm5.087-3.875q0-1.844.957-2.945.957-1.102 2.465-1.102.742 0 1.386.324.645.324 1.098.942v-4.016h1.68V21.6h-1.68v-1.055q-.453.586-1.098.918a3 3 0 0 1-1.386.332q-1.508 0-2.465-1.093-.957-1.095-.957-2.977m1.726 0q0 1.14.598 1.86.598.718 1.598.718.577 0 1.14-.3.563-.301.844-.739V16.21q-.281-.437-.844-.738-.562-.3-1.14-.3-.993 0-1.594.714-.602.715-.602 1.84m7.368 2.852.773-1.204q.43.445 1.16.762t1.442.317q.742 0 1.14-.282a.87.87 0 0 0 .399-.75.62.62 0 0 0-.258-.508 1.9 1.9 0 0 0-.668-.316 14 14 0 0 0-.91-.215 9 9 0 0 1-1-.262 4.7 4.7 0 0 1-.91-.394 1.8 1.8 0 0 1-.668-.672q-.258-.437-.258-1.039 0-.992.812-1.664t2.227-.672q1.781 0 2.992 1.07l-.703 1.188q-.367-.405-.977-.668a3.3 3.3 0 0 0-1.312-.262q-.649 0-1.035.27-.387.27-.387.691 0 .243.199.414.2.172.527.262.328.09.75.191t.86.196.859.277.75.43q.328.245.528.668.198.421.199.968 0 1.064-.852 1.743-.851.68-2.367.68a5.3 5.3 0 0 1-1.851-.317 4.1 4.1 0 0 1-1.461-.902" clip-rule="evenodd"/><path fill="#6B5DFF" d="M29.333 2.667V26H26v3.333H2.667V6H6V2.667zm-6.666 6.666H6V26h16.667zm-3.334 3.334V16H16v6.667h-3.333V16H9.333v-3.333z"/></g><defs><clipPath id="a"><path fill="#fff" d="M0 0h112v32H0z"/></clipPath></defs></svg>
